; generated by PrusaSlicer 2.4.0+win64 on 2022-08-09 at 17:43:14 UTC

; 

; external perimeters extrusion width = 0.45mm
; perimeters extrusion width = 0.45mm
; infill extrusion width = 0.45mm
; solid infill extrusion width = 0.45mm
; top infill extrusion width = 0.40mm
; first layer extrusion width = 0.42mm

M73 P0 R34
M73 Q0 S35
M201 X1000 Y1000 Z200 E5000 ; sets maximum accelerations, mm/sec^2
M203 X200 Y200 Z12 E120 ; sets maximum feedrates, mm/sec
M204 P1250 R1250 T1250 ; sets acceleration (P, T) and retract acceleration (R), mm/sec^2
M205 X8.00 Y8.00 Z0.40 E4.50 ; sets the jerk limits, mm/sec
M205 S0 T0 ; sets the minimum extruding and travel feed rate, mm/sec
M107
;TYPE:Custom
M862.3 P "MK3SMMU2S" ; printer model check
M862.1 P0.4 ; nozzle diameter check
M115 U3.10.1 ; tell printer latest fw version
G90 ; use absolute coordinates
M83 ; extruder relative mode
M104 S215 ; set extruder temp
M140 S60 ; set bed temp
Tx
M190 S60 ; wait for bed temp
M109 S215 ; wait for extruder temp
G28 W ; home all without mesh bed level
G80 ; mesh bed leveling

;go outside print area
G1 Y-3 F1000
G1 Z0.4 F1000
; select extruder
Tc
; purge line
G1 X55 F2000
G1 Z0.3 F1000
G92 E0
G1 X240 E25 F2200
G1 Y-2 F1000
G1 X55 E25 F1400
G1 Z0.2 F1000
G1 X5 E4 F1000

M221 S95
G92 E0

; Don't change E values below. Excessive value can damage the printer.

M907 E538 ; set extruder motor current
G21 ; set units to millimeters
G90 ; use absolute coordinates
M83 ; use relative distances for extrusion
M900 K0.05 ; Filament gcode LA 1.5
M900 K30 ; Filament gcode LA 1.0
M107
;LAYER_CHANGE
;Z:0.2
;HEIGHT:0.2
;BEFORE_LAYER_CHANGE
G92 E0.0
;0.2


G1 E-.8 F2100
G1 Z.4 F720
;AFTER_LAYER_CHANGE
;0.2
G1 X113.841 Y80.941 F10800
G1 Z.2 F720
G1 E.8 F2100
M204 S800
;TYPE:Skirt/Brim
;WIDTH:0.42
G1 F1200
G1 X114.421 Y80.174 E.03015
G1 X115.168 Y79.426 E.03315
G1 X115.939 Y78.842 E.03032
G1 X116.693 Y78.406 E.02729
G1 X117.673 Y78 E.03328
G1 X118.607 Y77.756 E.03025
G1 X119.757 Y77.627 E.03629
G1 X130.047 Y77.623 E.32262
G1 X131.387 Y77.755 E.04222
G1 X132.597 Y78.095 E.03941
G1 X133.814 Y78.686 E.04243
G1 X134.826 Y79.421 E.03921
G1 X135.764 Y80.397 E.04243
G1 X136.459 Y81.436 E.03921
G1 X137 Y82.673 E.04233
G1 X137.293 Y83.892 E.03931
G1 X137.377 Y85 E.03484
G1 X137.377 Y125 E1.25417
G1 X137.228 Y126.475 E.0465
M73 P1 R34
M73 Q1 S35
G1 X137.001 Y127.324 E.02753
G1 X136.595 Y128.305 E.03328
G1 X136.109 Y129.135 E.03019
G1 X135.449 Y129.973 E.03343
G1 X134.755 Y130.64 E.03016
G1 X133.901 Y131.261 E.03311
G1 X133.046 Y131.719 E.03042
G1 X132.235 Y132.03 E.02723
G1 X131.2 Y132.279 E.03338
G1 X130.053 Y132.376 E.03609
G1 X119.953 Y132.377 E.31667
G1 X118.515 Y132.226 E.04534
G1 X117.403 Y131.905 E.03629
G1 X116.355 Y131.413 E.03629
G1 X115.397 Y130.764 E.03629
G1 X114.551 Y129.973 E.03629
G1 X113.841 Y129.059 E.03629
G1 X113.281 Y128.046 E.03629
G1 X112.888 Y126.957 E.03629
G1 X112.669 Y125.821 E.0363
G1 X112.623 Y85 E1.2799
G1 X112.772 Y83.525 E.0465
G1 X113.061 Y82.497 E.03346
G1 X113.406 Y81.693 E.02745
G1 X113.811 Y80.993 E.02535
M204 S1000
; printing object Driven Socket Adapter Case.stl id:0 copy 0
;WIPE_START
G1 F8640
G1 X114.421 Y80.174 E-.23581
G1 X115.168 Y79.426 E-.24414
G1 X115.939 Y78.842 E-.22327
G1 X116.152 Y78.719 E-.05678
;WIPE_END
G1 E-.04 F2100
G1 Z.6 F720
G1 X120.716 Y103.714 F10800
G1 Z.2 F720
G1 E.8 F2100
M204 S800
;TYPE:Perimeter
G1 F1200
G1 X129.459 Y103.714 E.27415
G1 X129.719 Y103.753 E.00824
G1 X129.98 Y103.846 E.00869
G1 X130.218 Y103.989 E.0087
G1 X130.44 Y104.19 E.00939
G1 X130.676 Y104.563 E.01384
G1 X130.763 Y104.849 E.00937
G1 X130.787 Y105.093 E.00771
G1 X130.787 Y113.914 E.27656
G1 X130.75 Y114.212 E.00943
G1 X130.654 Y114.48 E.00892
G1 X130.512 Y114.718 E.0087
G1 X130.311 Y114.94 E.00938
G1 X129.937 Y115.176 E.01384
G1 X129.651 Y115.263 E.00937
G1 X129.407 Y115.287 E.00771
G1 X120.586 Y115.287 E.27656
G1 X120.288 Y115.25 E.00943
G1 X120.02 Y115.154 E.00891
G1 X119.782 Y115.012 E.0087
G1 X119.56 Y114.811 E.00938
G1 X119.324 Y114.437 E.01384
G1 X119.237 Y114.151 E.00937
G1 X119.213 Y113.907 E.00771
G1 X119.214 Y105.019 E.27865
G1 X119.307 Y104.603 E.01339
G1 X119.448 Y104.339 E.00938
G1 X119.638 Y104.108 E.00938
G1 X119.999 Y103.853 E.01385
G1 X120.281 Y103.752 E.00938
G1 X120.656 Y103.714 E.0118
M204 S1000
G1 X120.373 Y104.12 F10800
M204 S800
;TYPE:External perimeter
G1 F1200
G1 X120.569 Y104.091 E.0062
G1 X129.431 Y104.091 E.27787
G1 X129.627 Y104.12 E.0062
M73 Q1 S34
G1 X129.818 Y104.188 E.00636
G1 X129.992 Y104.293 E.00637
G1 X130.149 Y104.435 E.00662
G1 X130.33 Y104.721 E.01063
G1 X130.391 Y104.923 E.00661
G1 X130.41 Y105.112 E.00597
G1 X130.41 Y113.89 E.27524
G1 X130.381 Y114.124 E.00739
G1 X130.312 Y114.318 E.00645
G1 X130.207 Y114.492 E.00637
G1 X130.066 Y114.648 E.00661
G1 X129.779 Y114.83 E.01063
G1 X129.577 Y114.891 E.00661
G1 X129.388 Y114.91 E.00597
G1 X120.61 Y114.91 E.27524
G1 X120.376 Y114.881 E.00739
G1 X120.182 Y114.812 E.00645
G1 X120.008 Y114.707 E.00637
G1 X119.852 Y114.566 E.00661
G1 X119.67 Y114.279 E.01063
G1 X119.609 Y114.077 E.00661
G1 X119.59 Y113.888 E.00597
G1 X119.591 Y105.061 E.27676
G1 X119.664 Y104.735 E.01047
G1 X119.764 Y104.549 E.00661
G1 X119.897 Y104.386 E.00661
G1 X120.175 Y104.191 E.01063
G1 X120.317 Y104.14 E.00473
M204 S1000
G1 X120.423 Y103.928 F10800
;WIPE_START
G1 F8640
G1 X120.569 Y104.091 E-.05934
G1 X123.603 Y104.091 E-.70066
;WIPE_END
G1 E-.04 F2100
G1 Z.6 F720
G1 X121.453 Y119.643 F10800
G1 Z.2 F720
G1 E.8 F2100
M204 S800
;TYPE:Perimeter
G1 F1200
G1 X121.563 Y119.574 E.00405
G1 X121.849 Y119.487 E.00937
G1 X122.093 Y119.463 E.00771
G1 X127.959 Y119.464 E.18392
G1 X128.219 Y119.503 E.00824
G1 X128.48 Y119.596 E.00869
G1 X128.718 Y119.739 E.0087
G1 X128.94 Y119.94 E.00939
G1 X129.188 Y120.331 E.01453
G1 X129.286 Y120.769 E.01408
G1 X129.287 Y126.664 E.18482
G1 X129.25 Y126.962 E.00943
G1 X129.154 Y127.23 E.00892
G1 X129.012 Y127.468 E.0087
G1 X128.811 Y127.69 E.00938
G1 X128.419 Y127.938 E.01454
G1 X127.981 Y128.036 E.01408
G1 X122.086 Y128.037 E.18482
G1 X121.788 Y128 E.00943
G1 X121.52 Y127.904 E.00891
G1 X121.282 Y127.762 E.0087
G1 X121.06 Y127.561 E.00938
G1 X120.812 Y127.169 E.01454
G1 X120.714 Y126.73 E.01409
G1 X120.717 Y120.736 E.18795
G1 X120.771 Y120.464 E.00868
G1 X120.885 Y120.188 E.00938
G1 X121.171 Y119.822 E.01454
G1 X121.403 Y119.675 E.00861
M204 S1000
G1 X121.428 Y120.106 F10800
M204 S800
;TYPE:External perimeter
G1 F1200
G1 X121.721 Y119.92 E.01088
G1 X121.923 Y119.859 E.00661
G1 X122.112 Y119.84 E.00597
G1 X127.931 Y119.841 E.18246
G1 X128.127 Y119.87 E.0062
G1 X128.318 Y119.938 E.00636
G1 X128.492 Y120.043 E.00637
G1 X128.649 Y120.185 E.00662
G1 X128.834 Y120.478 E.01087
G1 X128.909 Y120.811 E.01072
G1 X128.91 Y126.64 E.18277
G1 X128.881 Y126.874 E.00739
G1 X128.812 Y127.068 E.00645
G1 X128.707 Y127.242 E.00637
G1 X128.566 Y127.398 E.00661
G1 X128.272 Y127.584 E.01088
G1 X127.939 Y127.659 E.01072
G1 X122.11 Y127.66 E.18277
G1 X121.876 Y127.631 E.00739
G1 X121.682 Y127.562 E.00645
G1 X121.508 Y127.457 E.00637
G1 X121.352 Y127.316 E.00661
G1 X121.166 Y127.022 E.01088
G1 X121.091 Y126.689 E.01072
G1 X121.094 Y120.773 E.18548
G1 X121.134 Y120.574 E.00636
G1 X121.214 Y120.379 E.00661
G1 X121.391 Y120.153 E.009
M204 S1000
G1 X121.362 Y119.765 F10800
;WIPE_START
G1 F8640
G1 X121.721 Y119.92 E-.09329
G1 X121.923 Y119.859 E-.04868
G1 X122.112 Y119.84 E-.04395
G1 X124.598 Y119.84 E-.57408
;WIPE_END
G1 E-.04 F2100
G1 Z.6 F720
G1 X117.463 Y95.966 F10800
G1 Z.2 F720
G1 E.8 F2100
M204 S800
;TYPE:Perimeter
G1 F1200
G1 X117.464 Y83.769 E.38241
G1 X117.557 Y83.353 E.01338
G1 X117.698 Y83.089 E.00938
G1 X117.874 Y82.874 E.0087
G1 X118.089 Y82.698 E.0087
G1 X118.353 Y82.557 E.00938
G1 X118.769 Y82.464 E.01339
G1 X131.164 Y82.463 E.38863
G1 X131.463 Y82.5 E.00943
G1 X131.73 Y82.596 E.0089
G1 X131.968 Y82.739 E.0087
G1 X132.19 Y82.94 E.00939
G1 X132.426 Y83.313 E.01384
G1 X132.513 Y83.599 E.00937
G1 X132.537 Y83.843 E.00771
G1 X132.537 Y96.164 E.3863
G1 X132.5 Y96.462 E.00943
G1 X132.404 Y96.73 E.00892
G1 X132.262 Y96.968 E.0087
G1 X132.061 Y97.19 E.00938
G1 X131.687 Y97.426 E.01385
G1 X131.401 Y97.513 E.00937
G1 X131.157 Y97.537 E.00771
G1 X118.836 Y97.537 E.3863
G1 X118.538 Y97.5 E.00943
G1 X118.27 Y97.404 E.00891
G1 X118.032 Y97.262 E.0087
G1 X117.81 Y97.061 E.00938
G1 X117.574 Y96.687 E.01385
G1 X117.487 Y96.401 E.00937
G1 X117.463 Y96.026 E.0118
M204 S1000
G1 X117.859 Y96.327 F10800
M204 S800
;TYPE:External perimeter
G1 F1200
G1 X117.84 Y96.138 E.00597
G1 X117.841 Y83.811 E.3865
G1 X117.914 Y83.485 E.01047
G1 X118.014 Y83.299 E.00661
G1 X118.142 Y83.142 E.00637
G1 X118.299 Y83.014 E.00637
G1 X118.485 Y82.914 E.00661
G1 X118.811 Y82.841 E.01047
G1 X131.141 Y82.84 E.38658
G1 X131.375 Y82.869 E.00739
G1 X131.568 Y82.938 E.00644
G1 X131.742 Y83.043 E.00637
G1 X131.899 Y83.185 E.00662
G1 X132.08 Y83.471 E.01063
G1 X132.141 Y83.673 E.00661
G1 X132.16 Y83.862 E.00597
G1 X132.16 Y96.14 E.38498
G1 X132.131 Y96.374 E.00739
G1 X132.062 Y96.568 E.00645
G1 X131.957 Y96.742 E.00637
G1 X131.816 Y96.898 E.00661
G1 X131.529 Y97.08 E.01063
G1 X131.327 Y97.141 E.00661
G1 X131.138 Y97.16 E.00597
G1 X118.86 Y97.16 E.38498
G1 X118.626 Y97.131 E.00739
G1 X118.432 Y97.062 E.00645
G1 X118.258 Y96.957 E.00637
G1 X118.102 Y96.816 E.00661
G1 X117.92 Y96.529 E.01063
G1 X117.876 Y96.385 E.00473
M204 S1000
G1 X117.677 Y96.27 F10800
;WIPE_START
G1 F8640
G1 X117.84 Y96.138 E-.05759
G1 X117.84 Y93.096 E-.70241
;WIPE_END
G1 E-.04 F2100
G1 Z.6 F720
G1 X115.787 Y95.927 F10800
G1 Z.2 F720
G1 E.8 F2100
M204 S800
;TYPE:Perimeter
G1 F1200
G1 X115.787 Y85.019 E.34201
G1 X115.817 Y84.505 E.01615
M73 P2 R34
M73 Q2 S34
G1 X115.906 Y84.011 E.01573
G1 X115.992 Y83.704 E.01001
G1 X116.177 Y83.231 E.01591
G1 X116.325 Y82.942 E.01019
G1 X116.494 Y82.665 E.01019
G1 X116.801 Y82.26 E.01591
G1 X117.017 Y82.026 E.01001
G1 X117.392 Y81.692 E.01573
G1 X117.804 Y81.405 E.01573
G1 X118.088 Y81.247 E.01019
G1 X118.383 Y81.111 E.01019
G1 X118.862 Y80.944 E.01591
G1 X119.178 Y80.869 E.01019
G1 X119.505 Y80.817 E.01037
G1 X119.836 Y80.791 E.01042
G1 X129.982 Y80.787 E.31811
G1 X130.501 Y80.818 E.01629
G1 X130.822 Y80.869 E.01019
G1 X131.143 Y80.946 E.01037
G1 X131.458 Y81.048 E.01037
G1 X131.758 Y81.172 E.01019
G1 X132.201 Y81.409 E.01573
G1 X132.612 Y81.696 E.01573
G1 X132.859 Y81.907 E.01019
G1 X133.093 Y82.141 E.01037
G1 X133.308 Y82.392 E.01037
G1 X133.499 Y82.655 E.01019
G1 X133.753 Y83.088 E.01573
G1 X133.954 Y83.548 E.01573
G1 X134.054 Y83.857 E.01019
G1 X134.131 Y84.178 E.01037
G1 X134.182 Y84.499 E.01019
G1 X134.213 Y85.019 E.01634
G1 X134.213 Y124.987 E1.25315
G1 X134.2 Y125.329 E.01076
G1 X134.161 Y125.659 E.01041
G1 X134.096 Y125.983 E.01037
G1 X134.006 Y126.302 E.01037
G1 X133.892 Y126.612 E.01037
G1 X133.753 Y126.912 E.01037
G1 X133.592 Y127.201 E.01037
G1 X133.407 Y127.477 E.01041
G1 X133.203 Y127.736 E.01033
G1 X132.979 Y127.979 E.01037
G1 X132.74 Y128.199 E.01019
G1 X132.335 Y128.506 E.01591
G1 X132.058 Y128.675 E.01019
G1 X131.764 Y128.825 E.01037
G1 X131.458 Y128.952 E.01037
G1 X131.143 Y129.054 E.01037
G1 X130.827 Y129.13 E.01019
G1 X130.325 Y129.2 E.01591
G1 X129.987 Y129.213 E.01061
G1 X120.019 Y129.213 E.31252
G1 X119.505 Y129.183 E.01616
G1 X119.017 Y129.095 E.01555
G1 X118.537 Y128.95 E.01573
G1 X118.236 Y128.825 E.01019
G1 X117.942 Y128.675 E.01037
G1 X117.66 Y128.502 E.01037
G1 X117.392 Y128.308 E.01037
G1 X117.141 Y128.093 E.01037
G1 X116.911 Y127.863 E.01019
G1 X116.589 Y127.471 E.01591
G1 X116.408 Y127.201 E.01019
G1 X116.25 Y126.917 E.01019
G1 X116.046 Y126.453 E.01591
G1 X115.946 Y126.143 E.01019
G1 X115.87 Y125.827 E.01019
G1 X115.8 Y125.325 E.01591
G1 X115.787 Y124.987 E.01061
G1 X115.787 Y95.987 E.90925
M204 S1000
G1 X115.41 Y96.327 F10800
M204 S800
;TYPE:External perimeter
G1 F1200
G1 X115.41 Y85.008 E.3549
G1 X115.442 Y84.461 E.0172
G1 X115.538 Y83.927 E.01701
G1 X115.634 Y83.584 E.01117
G1 X115.833 Y83.077 E.01707
G1 X115.995 Y82.757 E.01123
G1 X116.183 Y82.452 E.01123
G1 X116.511 Y82.018 E.01707
G1 X116.753 Y81.756 E.01117
G1 X117.159 Y81.396 E.01701
G1 X117.604 Y81.086 E.01701
G1 X117.916 Y80.91 E.01123
G1 X118.242 Y80.76 E.01124
G1 X118.756 Y80.582 E.01707
G1 X119.105 Y80.498 E.01123
G1 X119.461 Y80.442 E.0113
G1 X119.82 Y80.414 E.01132
G1 X129.993 Y80.41 E.31896
G1 X130.542 Y80.442 E.01722
G1 X130.895 Y80.498 E.01124
G1 X131.246 Y80.583 E.0113
G1 X131.589 Y80.694 E.0113
G1 X131.92 Y80.831 E.01124
G1 X132.398 Y81.087 E.01701
G1 X132.843 Y81.397 E.01701
G1 X133.116 Y81.63 E.01123
G1 X133.37 Y81.884 E.0113
G1 X133.604 Y82.158 E.0113
G1 X133.815 Y82.448 E.01123
G1 X134.089 Y82.916 E.01701
G1 X134.307 Y83.413 E.01701
G1 X134.417 Y83.754 E.01123
G1 X134.502 Y84.105 E.0113
G1 X134.558 Y84.458 E.01123
G1 X134.59 Y85.008 E.01727
G1 X134.59 Y124.994 E1.25373
G1 X134.576 Y125.359 E.01145
G1 X134.533 Y125.718 E.01134
G1 X134.463 Y126.072 E.0113
G1 X134.365 Y126.418 E.0113
G1 X134.24 Y126.756 E.0113
G1 X134.09 Y127.084 E.0113
G1 X133.913 Y127.398 E.0113
G1 X133.712 Y127.699 E.01134
G1 X133.49 Y127.981 E.01126
G1 X133.245 Y128.245 E.0113
G1 X132.982 Y128.489 E.01123
G1 X132.548 Y128.817 E.01707
G1 X132.243 Y129.005 E.01123
G1 X131.922 Y129.168 E.0113
G1 X131.589 Y129.306 E.0113
G1 X131.246 Y129.417 E.0113
G1 X130.897 Y129.501 E.01123
G1 X130.358 Y129.576 E.01707
G1 X129.994 Y129.59 E.01143
G1 X120.008 Y129.59 E.3131
G1 X119.461 Y129.558 E.0172
G1 X118.929 Y129.463 E.01694
G1 X118.41 Y129.305 E.01701
G1 X118.078 Y129.168 E.01124
G1 X117.757 Y129.005 E.0113
G1 X117.45 Y128.816 E.0113
G1 X117.158 Y128.604 E.0113
G1 X116.884 Y128.37 E.0113
G1 X116.631 Y128.117 E.01124
G1 X116.286 Y127.696 E.01707
G1 X116.087 Y127.398 E.01124
G1 X115.911 Y127.086 E.01123
G1 X115.693 Y126.587 E.01707
G1 X115.583 Y126.246 E.01124
G1 X115.499 Y125.897 E.01123
G1 X115.424 Y125.358 E.01707
G1 X115.41 Y124.994 E.01143
G1 X115.41 Y96.387 E.89694
M204 S1000
G1 X115.756 Y96.127 F10800
;WIPE_START
G1 F8640
G1 X115.41 Y93.096 E-.76
;WIPE_END
G1 E-.04 F2100
G1 Z.6 F720
G1 X133.597 Y83.046 F10800
G1 Z.2 F720
G1 E.8 F2100
M204 S800
;TYPE:Solid infill
;WIDTH:0.421921
G1 F1200
G1 X132.657 Y82.106 E.04187
G1 X132.439 Y81.92 E.00905
G1 X132.053 Y81.65 E.01485
G1 X131.637 Y81.428 E.01485
G1 X131.314 Y81.298 E.01098
G1 X133.702 Y83.686 E.10642
G1 X133.782 Y83.933 E.00819
G1 X133.88 Y84.401 E.01507
G1 X130.599 Y81.12 E.14625
G1 X130.47 Y81.099 E.0041
G1 X130.016 Y81.072 E.01435
G1 X131.123 Y82.18 E.04937
G1 X130.588 Y82.18 E.01689
G1 X129.477 Y81.07 E.04947
G1 X128.942 Y81.07 E.01689
G1 X130.052 Y82.18 E.04947
G1 X129.516 Y82.18 E.01689
G1 X128.406 Y81.07 E.04946
G1 X127.87 Y81.071 E.01689
G1 X128.98 Y82.18 E.04945
G1 X128.444 Y82.18 E.01689
M73 P2 R33
G1 X127.334 Y81.071 E.04945
G1 X126.798 Y81.071 E.01689
G1 X127.908 Y82.18 E.04944
G1 X127.372 Y82.18 E.01689
G1 X126.263 Y81.071 E.04943
G1 X125.727 Y81.071 E.01689
G1 X126.836 Y82.18 E.04943
G1 X126.3 Y82.18 E.01689
G1 X125.191 Y81.072 E.04942
G1 X124.655 Y81.072 E.01689
G1 X125.764 Y82.181 E.04941
G1 X125.228 Y82.181 E.01689
G1 X124.119 Y81.072 E.04941
G1 X123.584 Y81.072 E.01689
G1 X124.692 Y82.181 E.0494
G1 X124.156 Y82.181 E.01689
G1 X123.048 Y81.072 E.04939
G1 X122.512 Y81.073 E.01689
G1 X123.62 Y82.181 E.04939
G1 X123.084 Y82.181 E.01689
G1 X121.976 Y81.073 E.04938
G1 X121.44 Y81.073 E.01689
G1 X122.548 Y82.181 E.04937
G1 X122.012 Y82.181 E.01689
G1 X120.905 Y81.073 E.04937
G1 X120.369 Y81.073 E.01689
G1 X121.476 Y82.181 E.04936
G1 X120.94 Y82.181 E.01689
G1 X119.834 Y81.075 E.04931
G1 X119.351 Y81.127 E.01531
G1 X120.405 Y82.181 E.04695
G1 X119.869 Y82.181 E.01689
G1 X118.914 Y81.226 E.04257
G1 X118.516 Y81.364 E.01327
G1 X119.333 Y82.181 E.03642
G1 X118.797 Y82.181 E.01689
G1 X118.151 Y81.535 E.02878
G1 X117.819 Y81.74 E.01228
G1 X118.348 Y82.269 E.02358
G1 X118.253 Y82.29 E.00306
G1 X117.98 Y82.436 E.00978
G1 X117.51 Y81.966 E.02094
G1 X117.226 Y82.218 E.01196
G1 X117.678 Y82.67 E.02013
G1 X117.441 Y82.97 E.01203
G1 X116.973 Y82.501 E.02088
G1 X116.742 Y82.806 E.01206
G1 X117.271 Y83.336 E.0236
G1 X117.181 Y83.781 E.01433
G1 X116.541 Y83.141 E.02854
